X: 27311
T: Mississippi Sawyer
R: reel
M: 4/4
K: Dmajor
|:fg|"D" a2 aa a2 fg|a2 aa ab a2|"G" g2 gg g2 ef|g2 gg ga ge|
"D" f2 ff fgfe|defg afge|"A" egfe ABcA|"D" d4 d2:|
|:fe|d2 f2 A2 f2|defg afge|"A" c2 e2 A2 e2|A2 ee egfe|
"D" d2 f2 A2 f2|defg afge|"A" egfe ABcA|"D" d4 d2:|

